cdi/_inc/system.svg

<svg xmlns="http://www.w3.org/2000/svg"><g fill="#fff"><path d="m110.65 86.525c-49.212-2.986-88.028-13.934-103.4-29.195-7.077-6.967-8.847-13.16-5.861-19.906 6.856-15.372 34.725-27.758 77.19-34.393 18.579-2.875 63.92-3.981 84.268-2.101 30.301 2.875 61.818 10.838 77.19 19.463 7.078 3.981 16.035 11.059 16.035 12.829 0 .552-7.52.995-17.583.995-15.925 0-17.805-.221-20.348-2.212-20.238-15.925-91.014-22.56-139.672-13.16-30.965 5.972-47.885 16.699-43.683 27.758 3.429 9.178 21.012 17.141 48.77 22.117 16.035 2.875 56.842 3.981 75.42 2.101 25.546-2.654 47.442-8.404 57.948-15.482l4.977-3.428h17.141c9.289 0 17.03.442 17.03.995 0 2.212-10.395 10.285-18.468 14.266-14.376 7.188-30.743 11.943-53.414 15.593-22.67 3.649-51.534 5.197-73.54 3.76z"/><path d="m264.919 44.723v-39.259h52.861c77.522 0 101.741 1.991 127.176 10.506 17.915 6.082 27.978 12.939 31.628 21.786 7.741 18.468-14.598 35.056-56.842 42.244-19.132 3.207-36.494 3.981-95.88 3.981h-58.943zm143.322 22.338c19.352-3.539 32.955-9.621 36.494-16.367 5.75-11.169-5.53-21.232-29.085-26.43-15.703-3.428-33.619-4.424-79.07-4.424h-42.908v24.993 24.993l52.308-.553c42.134-.332 54.188-.774 62.261-2.212z"/><path d="m574.564 58.546v-25.435h12.718 12.718v25.435 25.435h-12.718-12.718z"/><path d="m492.73 47.487c0-7.188.331-9.953 1.437-9.953 2.986-.11 58.28 9.4 58.28 9.953s-55.294 10.064-58.28 9.953c-1.106 0-1.437-2.765-1.437-9.953z"/><path d="m117.285 54.123c-7.963-1.438-14.266-4.092-17.141-7.189-2.212-2.322-2.433-3.096-1.327-5.418 1.548-3.429 7.52-6.525 15.814-8.405 8.183-1.88 29.637-.885 36.494 1.548 9.842 3.539 12.717 9.511 6.856 13.713-7.188 5.087-28.089 8.073-40.696 5.751zm26.983-5.64c7.188-1.549 11.169-4.424 9.179-6.857-.774-.885-3.76-2.322-6.635-3.096-6.857-1.991-29.085-1.88-34.946.221-4.976 1.769-7.409 4.645-5.419 6.635 3.65 3.65 26.541 5.53 37.821 3.097z"/><path d="m574.564 14.311v-8.847h12.718 12.718v8.847 8.847h-12.718-12.718z"/></g></svg>

<?xml version="1.0" encoding="utf-8"?>
<svg xmlns="http://www.w3.org/2000/svg">
  <path d="M 110.65 86.525 C 61.438 83.539 22.622 72.591 7.25 57.33 C 0.173 50.363 -1.597 44.17 1.389 37.424 C 8.245 22.052 36.114 9.666 78.579 3.031 C 97.158 0.156 142.499 -0.95 162.847 0.93 C 193.148 3.805 224.665 11.768 240.037 20.393 C 247.115 24.374 256.072 31.452 256.072 33.222 C 256.072 33.774 248.552 34.217 238.489 34.217 C 222.564 34.217 220.684 33.996 218.141 32.005 C 197.903 16.08 127.127 9.445 78.469 18.845 C 47.504 24.817 30.584 35.544 34.786 46.603 C 38.215 55.781 55.798 63.744 83.556 68.72 C 99.591 71.595 140.398 72.701 158.976 70.821 C 184.522 68.167 206.418 62.417 216.924 55.339 L 221.901 51.911 L 239.042 51.911 C 248.331 51.911 256.072 52.353 256.072 52.906 C 256.072 55.118 245.677 63.191 237.604 67.172 C 223.228 74.36 206.861 79.115 184.19 82.765 C 161.52 86.414 132.656 87.962 110.65 86.525 Z" style="fill: rgb(255, 255, 255);"/>
  <path d="M 264.919 44.723 L 264.919 5.464 L 317.78 5.464 C 395.302 5.464 419.521 7.455 444.956 15.97 C 462.871 22.052 472.934 28.909 476.584 37.756 C 484.325 56.224 461.986 72.812 419.742 80 C 400.61 83.207 383.248 83.981 323.862 83.981 L 264.919 83.981 L 264.919 44.723 Z M 408.241 67.061 C 427.593 63.522 441.196 57.44 444.735 50.694 C 450.485 39.525 439.205 29.462 415.65 24.264 C 399.947 20.836 382.031 19.84 336.58 19.84 L 293.672 19.84 L 293.672 44.833 L 293.672 69.826 L 345.98 69.273 C 388.114 68.941 400.168 68.499 408.241 67.061 Z" style="fill: rgb(255, 255, 255);"/>
  <path d="M 574.564 58.546 L 574.564 33.111 L 587.282 33.111 L 600 33.111 L 600 58.546 L 600 83.981 L 587.282 83.981 L 574.564 83.981 L 574.564 58.546 Z" style="fill: rgb(255, 255, 255);"/>
  <path d="M 492.73 47.487 C 492.73 40.299 493.061 37.534 494.167 37.534 C 497.153 37.424 552.447 46.934 552.447 47.487 C 552.447 48.04 497.153 57.551 494.167 57.44 C 493.061 57.44 492.73 54.675 492.73 47.487 Z" style="fill: rgb(255, 255, 255);"/>
  <path d="M 117.285 54.123 C 109.322 52.685 103.019 50.031 100.144 46.934 C 97.932 44.612 97.711 43.838 98.817 41.516 C 100.365 38.087 106.337 34.991 114.631 33.111 C 122.814 31.231 144.268 32.226 151.125 34.659 C 160.967 38.198 163.842 44.17 157.981 48.372 C 150.793 53.459 129.892 56.445 117.285 54.123 Z M 144.268 48.483 C 151.456 46.934 155.437 44.059 153.447 41.626 C 152.673 40.741 149.687 39.304 146.812 38.53 C 139.955 36.539 117.727 36.65 111.866 38.751 C 106.89 40.52 104.457 43.396 106.447 45.386 C 110.097 49.036 132.988 50.916 144.268 48.483 Z" style="fill: rgb(255, 255, 255);"/>
  <path d="M 574.564 14.311 L 574.564 5.464 L 587.282 5.464 L 600 5.464 L 600 14.311 L 600 23.158 L 587.282 23.158 L 574.564 23.158 L 574.564 14.311 Z" style="fill: rgb(255, 255, 255);"/>
</svg>
